packages/foundations/assets/icons/functional/images/maps/compass_12.svg

<svg width="12" height="12" viewBox="0 0 12 12" fill="none" xmlns="http://www.w3.org/2000/svg">
<g clip-path="url(#clip0_232_301)">
<g clip-path="url(#clip1_232_301)">
<path fill-rule="evenodd" clip-rule="evenodd" d="M6.00001 0.461533C9.05355 0.461533 11.5385 2.94584 11.5385 5.99999C11.5385 9.05415 9.05355 11.5385 6.00001 11.5385C2.94647 11.5385 0.461548 9.05353 0.461548 5.99999C0.461548 2.94646 2.94647 0.461533 6.00001 0.461533ZM6.00001 1.6923C3.62462 1.6923 1.69232 3.62523 1.69232 5.99999C1.69232 8.37476 3.62462 10.3077 6.00001 10.3077C8.37539 10.3077 10.3077 8.37476 10.3077 5.99999C10.3077 3.62523 8.37539 1.6923 6.00001 1.6923ZM6.8597 3.37046C7.05724 3.21169 7.33232 3.19076 7.55201 3.31753C7.77047 3.44492 7.88985 3.69353 7.8517 3.94399L7.44924 6.57107C7.42586 6.72307 7.34709 6.86092 7.2277 6.95692L5.14032 8.64246C4.94278 8.80184 4.66647 8.82399 4.44616 8.69661C4.22586 8.56984 4.10647 8.31938 4.14586 8.0683L4.56247 5.41784C4.58647 5.26646 4.66586 5.12923 4.78586 5.03323L6.8597 3.37046ZM6.39632 5.31876L5.74093 5.84369L5.60986 6.68122L6.26893 6.14892L6.39632 5.31876Z" fill="#1A1C1F"/>
</g>
</g>
<defs>
<clipPath id="clip0_232_301">
<rect width="12" height="12" fill="white"/>
</clipPath>
<clipPath id="clip1_232_301">
<rect width="12" height="12" fill="white"/>
</clipPath>
</defs>
</svg>

<svg xmlns="http://www.w3.org/2000/svg" width="12" height="12" fill="none"><g clip-path="url(#a)"><g clip-path="url(#b)"><path fill="#1A1C1F" fill-rule="evenodd" d="M6 .462A5.545 5.545 0 0 1 11.539 6 5.545 5.545 0 0 1 6 11.539 5.545 5.545 0 0 1 .462 6 5.545 5.545 0 0 1 6 .462m0 1.23A4.313 4.313 0 0 0 1.692 6 4.313 4.313 0 0 0 6 10.308 4.313 4.313 0 0 0 10.308 6 4.313 4.313 0 0 0 6 1.692m.86 1.678a.615.615 0 0 1 .992.574l-.403 2.627a.62.62 0 0 1-.221.386L5.14 8.642a.616.616 0 0 1-.994-.574l.416-2.65a.62.62 0 0 1 .224-.385zM6.396 5.32l-.655.525-.131.837.659-.532z" clip-rule="evenodd"/></g></g><defs><clipPath id="a"><path fill="#fff" d="M0 0h12v12H0z"/></clipPath><clipPath id="b"><path fill="#fff" d="M0 0h12v12H0z"/></clipPath></defs></svg>
